;FLAVOR:Marlin
;TIME:3482
;Filament used: 1.1263m
;Layer height: 0.1
;MINX:140.15
;MINY:120.15
;MINZ:0.2
;MAXX:159.85
;MAXY:139.85
;MAXZ:20
;POSTPROCESSED
;Generated with Cura_SteamEngine 4.4.1
M104 S190
M105
M109 S190
M82 ;absolute extrusion mode
M117 Preparando...
G28 ; Faz um Home

G92 E0 ; Reinicia a extrusora
G1 Z1.0 F3000

G1 X0.1 Y20 Z0.3 F5000.0
G1 X0.1 Y200.0 Z0.3 F1500.0 E15

G1 X0.4 Y200.0 Z0.3 F5000.0
G1 X0.4 Y20 Z0.3 F1500.0 E30

G92 E0 ; Reinicia a extrusora
G1 Z1.0 F3000 ;move o eixo Z um milímetro pra cima para não riscar a superfície da mesa

G90 ; Ativa a posição absoluta na impressora a partir da Origem.
G92 E0
G92 E0
G1 F1500 E-6.5
;LAYER_COUNT:199
;LAYER:0
M117 Cube: Camada 0/199
M107
;MESH:Cube.stl
G0 F1800 X140.75 Y139.25 Z0.2
;TYPE:WALL-INNER
G1 F1500 E0
G1 F1350 X140.75 Y120.75 E0.46148
G1 X159.25 Y120.75 E0.92297
G1 X159.25 Y139.25 E1.38445
G1 X140.75 Y139.25 E1.84594
G0 F1800 X140.45 Y139.55
G1 F1350 X140.45 Y120.45 E2.32239
G1 X159.55 Y120.45 E2.79884
G1 X159.55 Y139.55 E3.27529
G1 X140.45 Y139.55 E3.75174
G0 F1800 X140.15 Y139.85
;TYPE:WALL-OUTER
G1 F1350 X140.15 Y120.15 E4.24316
G1 X159.85 Y120.15 E4.73458
G1 X159.85 Y139.85 E5.226
G1 X140.15 Y139.85 E5.71742
G0 F1800 X140.15 Y139.7
G0 X140.52 Y139.48
G0 X141.04 Y138.96
;TYPE:SKIN
G1 F1350 X141.04 Y121.04 E6.16443
G1 X158.96 Y121.04 E6.61145
G1 X158.96 Y138.96 E7.05847
G1 X141.04 Y138.96 E7.50548
G0 F1800 X141.37 Y138.824
G1 F1350 X141.173 Y138.628 E7.51241
G0 F1800 X141.173 Y138.204
G1 F1350 X141.794 Y138.824 E7.5343
G0 F1800 X142.218 Y138.824
G1 F1350 X141.173 Y137.779 E7.57117
G0 F1800 X141.173 Y137.355
G1 F1350 X142.643 Y138.824 E7.62301
G0 F1800 X143.067 Y138.824
G1 F1350 X141.173 Y136.931 E7.68981
G0 F1800 X141.173 Y136.506
G1 F1350 X143.491 Y138.824 E7.77158
G0 F1800 X143.916 Y138.824
G1 F1350 X141.173 Y136.082 E7.86833
G0 F1800 X141.173 Y135.658
G1 F1350 X144.34 Y138.824 E7.98004
G0 F1800 X144.764 Y138.824
G1 F1350 X141.173 Y135.234 E8.1067
G0 F1800 X141.173 Y134.809
G1 F1350 X145.188 Y138.824 E8.24834
G0 F1800 X145.613 Y138.824
G1 F1350 X141.173 Y134.385 E8.40496
G0 F1800 X141.173 Y133.961
G1 F1350 X146.037 Y138.824 E8.57653
G0 F1800 X146.461 Y138.824
G1 F1350 X141.173 Y133.537 E8.76306
G0 F1800 X141.173 Y133.112
G1 F1350 X146.885 Y138.824 E8.96457
G0 F1800 X147.31 Y138.824
G1 F1350 X141.173 Y132.688 E9.18105
G0 F1800 X141.173 Y132.264
G1 F1350 X147.734 Y138.824 E9.41249
G0 F1800 X148.158 Y138.824
G1 F1350 X141.173 Y131.84 E9.65889
G0 F1800 X141.173 Y131.415
G1 F1350 X148.582 Y138.824 E9.92026
G0 F1800 X149.007 Y138.824
G1 F1350 X141.173 Y130.991 E10.19661
G0 F1800 X141.173 Y130.567
G1 F1350 X149.431 Y138.824 E10.48791
G0 F1800 X149.855 Y138.824
G1 F1350 X141.173 Y130.143 E10.79418
G0 F1800 X141.173 Y129.718
G1 F1350 X150.279 Y138.824 E11.11541
G0 F1800 X150.704 Y138.824
G1 F1350 X141.173 Y129.294 E11.45163
G0 F1800 X141.173 Y128.87
G1 F1350 X151.128 Y138.824 E11.8028
G0 F1800 X151.552 Y138.824
G1 F1350 X141.173 Y128.445 E12.16895
G0 F1800 X141.173 Y128.021
G1 F1350 X151.977 Y138.824 E12.55007
G0 F1800 X152.401 Y138.824
G1 F1350 X141.173 Y127.597 E12.94615
G0 F1800 X141.173 Y127.173
G1 F1350 X152.825 Y138.824 E13.35719
G0 F1800 X153.249 Y138.824
G1 F1350 X141.173 Y126.748 E13.7832
G0 F1800 X141.173 Y126.324
G1 F1350 X153.674 Y138.824 E14.22419
G0 F1800 X154.098 Y138.824
G1 F1350 X141.173 Y125.9 E14.68014
G0 F1800 X141.173 Y125.476
G1 F1350 X154.522 Y138.824 E15.15104
G0 F1800 X154.946 Y138.824
G1 F1350 X141.173 Y125.051 E15.63692
G0 F1800 X141.173 Y124.627
G1 F1350 X155.371 Y138.824 E16.13778
G0 F1800 X155.795 Y138.824
G1 F1350 X141.173 Y124.203 E16.65359
G0 F1800 X141.173 Y123.779
G1 F1350 X156.219 Y138.824 E17.18436
G0 F1800 X156.643 Y138.824
G1 F1350 X141.173 Y123.354 E17.73011
G0 F1800 X141.173 Y122.93
G1 F1350 X157.068 Y138.824 E18.29083
G0 F1800 X157.492 Y138.824
G1 F1350 X141.173 Y122.506 E18.86651
G0 F1800 X141.173 Y122.081
G1 F1350 X157.916 Y138.824 E19.45716
G0 F1800 X158.341 Y138.824
G1 F1350 X141.173 Y121.657 E20.06279
G0 F1800 X141.173 Y121.233
G1 F1350 X158.765 Y138.824 E20.68338
G0 F1800 X158.824 Y138.459
G1 F1350 X141.539 Y121.174 E21.29315
G0 F1800 X141.963 Y121.174
G1 F1350 X158.824 Y138.035 E21.88797
G0 F1800 X158.824 Y137.611
G1 F1350 X142.387 Y121.174 E22.46783
G0 F1800 X142.812 Y121.174
G1 F1350 X158.824 Y137.187 E23.03272
G0 F1800 X158.824 Y136.762
G1 F1350 X143.236 Y121.174 E23.58262
G0 F1800 X143.66 Y121.174
G1 F1350 X158.824 Y136.338 E24.11757
G0 F1800 X158.824 Y135.914
G1 F1350 X144.085 Y121.174 E24.63755
G0 F1800 X144.509 Y121.174
G1 F1350 X158.824 Y135.49 E25.14257
G0 F1800 X158.824 Y135.065
G1 F1350 X144.933 Y121.174 E25.63261
G0 F1800 X145.357 Y121.174
G1 F1350 X158.824 Y134.641 E26.1077
G0 F1800 X158.824 Y134.217
G1 F1350 X145.782 Y121.174 E26.56781
G0 F1800 X146.206 Y121.174
G1 F1350 X158.824 Y133.793 E27.01296
G0 F1800 X158.824 Y133.368
G1 F1350 X146.63 Y121.174 E27.44313
G0 F1800 X147.054 Y121.174
G1 F1350 X158.824 Y132.944 E27.85835
G0 F1800 X158.824 Y132.52
G1 F1350 X147.479 Y121.174 E28.25859
G0 F1800 X147.903 Y121.174
G1 F1350 X158.824 Y132.096 E28.64388
G0 F1800 X158.824 Y131.671
G1 F1350 X148.327 Y121.174 E29.01419
G0 F1800 X148.751 Y121.174
G1 F1350 X158.824 Y131.247 E29.36954
G0 F1800 X158.824 Y130.823
G1 F1350 X149.176 Y121.174 E29.70992
G0 F1800 X149.6 Y121.174
G1 F1350 X158.824 Y130.398 E30.03532
G0 F1800 X158.824 Y129.974
G1 F1350 X150.024 Y121.174 E30.34576
G0 F1800 X150.448 Y121.174
G1 F1350 X158.824 Y129.55 E30.64125
G0 F1800 X158.824 Y129.126
G1 F1350 X150.873 Y121.174 E30.92176
G0 F1800 X151.297 Y121.174
G1 F1350 X158.824 Y128.701 E31.1873
G0 F1800 X158.824 Y128.277
G1 F1350 X151.721 Y121.174 E31.43787
G0 F1800 X152.146 Y121.174
G1 F1350 X158.824 Y127.853 E31.67348
G0 F1800 X158.824 Y127.429
G1 F1350 X152.57 Y121.174 E31.89412
G0 F1800 X152.994 Y121.174
G1 F1350 X158.824 Y127.004 E32.09979
G0 F1800 X158.824 Y126.58
G1 F1350 X153.418 Y121.174 E32.2905
G0 F1800 X153.843 Y121.174
G1 F1350 X158.824 Y126.156 E32.46624
G0 F1800 X158.824 Y125.732
G1 F1350 X154.267 Y121.174 E32.62701
G0 F1800 X154.691 Y121.174
G1 F1350 X158.824 Y125.307 E32.77282
G0 F1800 X158.824 Y124.883
G1 F1350 X155.115 Y121.174 E32.90366
G0 F1800 X155.54 Y121.174
G1 F1350 X158.824 Y124.459 E33.01953
G0 F1800 X158.824 Y124.035
G1 F1350 X155.964 Y121.174 E33.12044
G0 F1800 X156.388 Y121.174
G1 F1350 X158.824 Y123.61 E33.20638
G0 F1800 X158.824 Y123.186
G1 F1350 X156.812 Y121.174 E33.27736
G0 F1800 X157.237 Y121.174
G1 F1350 X158.824 Y122.762 E33.33336
G0 F1800 X158.824 Y122.337
G1 F1350 X157.661 Y121.174 E33.37439
G0 F1800 X158.085 Y121.174
G1 F1350 X158.824 Y121.913 E33.40046
G0 F1800 X158.824 Y121.489
G1 F1350 X158.51 Y121.174 E33.41156
;MESH:NONMESH
G0 F600 X158.51 Y121.174 Z0.3
G0 F1800 X140.75 Y139.25
;TIME_ELAPSED:69.970490
;LAYER:1
M117 Cube: Camada 1/199
M106 S255
;TYPE:WALL-INNER
;MESH:Cube.stl
G1 F2025 X140.75 Y120.75 E33.6423
G1 X159.25 Y120.75 E33.87304
G1 X159.25 Y139.25 E34.10378
G1 X140.75 Y139.25 E34.33452
G0 F2700 X140.45 Y139.55
G1 F2025 X140.45 Y120.45 E34.57275
G1 X159.55 Y120.45 E34.81098
G1 X159.55 Y139.55 E35.0492
G1 X140.45 Y139.55 E35.28743
G0 F2700 X140.15 Y139.85
;TYPE:WALL-OUTER
G1 F1350 X140.15 Y120.15 E35.53314
G1 X159.85 Y120.15 E35.77885
G1 X159.85 Y139.85 E36.02456
G1 X140.15 Y139.85 E36.27026
G0 F2700 X140.15 Y139.7
G0 X140.52 Y139.48
G0 X141.04 Y138.96
;TYPE:SKIN
G1 F1125 X141.04 Y121.04 E36.49377
G1 X158.96 Y121.04 E36.71728
G1 X158.96 Y138.96 E36.94079
G1 X141.04 Y138.96 E37.1643
G0 F2700 X141.174 Y121.444
G1 F1125 X141.444 Y121.174 E37.16906
G0 F2700 X141.868 Y121.174
G1 F1125 X141.174 Y121.869 E37.18131
G0 F2700 X141.174 Y122.293
G1 F1125 X142.293 Y121.174 E37.20105
G0 F2700 X142.717 Y121.174
G1 F1125 X141.174 Y122.717 E37.22826
G0 F2700 X141.174 Y123.141
G1 F1125 X143.141 Y121.174 E37.26296
G0 F2700 X143.566 Y121.174
G1 F1125 X141.174 Y123.566 E37.30515
G0 F2700 X141.174 Y123.99
G1 F1125 X143.99 Y121.174 E37.35482
G0 F2700 X144.414 Y121.174
G1 F1125 X141.174 Y124.414 E37.41197
G0 F2700 X141.174 Y124.838
G1 F1125 X144.838 Y121.174 E37.4766
G0 F2700 X145.263 Y121.174
G1 F1125 X141.174 Y125.263 E37.54873
G0 F2700 X141.174 Y125.687
G1 F1125 X145.687 Y121.174 E37.62833
G0 F2700 X146.111 Y121.174
G1 F1125 X141.174 Y126.111 E37.71541
G0 F2700 X141.174 Y126.536
G1 F1125 X146.535 Y121.174 E37.80998
G0 F2700 X146.96 Y121.174
G1 F1125 X141.174 Y126.96 E37.91204
G0 F2700 X141.174 Y127.384
G1 F1125 X147.384 Y121.174 E38.02158
G0 F2700 X147.808 Y121.174
G1 F1125 X141.174 Y127.808 E38.1386
G0 F2700 X141.174 Y128.233
G1 F1125 X148.232 Y121.174 E38.2631
G0 F2700 X148.657 Y121.174
G1 F1125 X141.174 Y128.657 E38.39509
G0 F2700 X141.174 Y129.081
G1 F1125 X149.081 Y121.174 E38.53456
G0 F2700 X149.505 Y121.174
G1 F1125 X141.174 Y129.505 E38.68151
G0 F2700 X141.174 Y129.93
G1 F1125 X149.929 Y121.174 E38.83595
G0 F2700 X150.354 Y121.174
G1 F1125 X141.174 Y130.354 E38.99787
G0 F2700 X141.174 Y130.778
G1 F1125 X150.778 Y121.174 E39.16728
G0 F2700 X151.202 Y121.174
G1 F1125 X141.174 Y131.202 E39.34416
G0 F2700 X141.174 Y131.627
G1 F1125 X151.627 Y121.174 E39.52854
G0 F2700 X152.051 Y121.174
G1 F1125 X141.174 Y132.051 E39.7204
G0 F2700 X141.174 Y132.475
G1 F1125 X152.475 Y121.174 E39.91973
G0 F2700 X152.899 Y121.174
G1 F1125 X141.174 Y132.9 E40.12656
G0 F2700 X141.174 Y133.324
G1 F1125 X153.324 Y121.174 E40.34087
G0 F2700 X153.748 Y121.174
G1 F1125 X141.174 Y133.748 E40.56266
G0 F2700 X141.174 Y134.172
G1 F1125 X154.172 Y121.174 E40.79193
G0 F2700 X154.596 Y121.174
G1 F1125 X141.174 Y134.597 E41.02869
G0 F2700 X141.174 Y135.021
G1 F1125 X155.021 Y121.174 E41.27293
G0 F2700 X155.445 Y121.174
G1 F1125 X141.174 Y135.445 E41.52466
G0 F2700 X141.174 Y135.869
G1 F1125 X155.869 Y121.174 E41.78386
G0 F2700 X156.293 Y121.174
G1 F1125 X141.174 Y136.294 E42.05055
G0 F2700 X141.174 Y136.718
G1 F1125 X156.718 Y121.174 E42.32473
G0 F2700 X157.142 Y121.174
G1 F1125 X141.174 Y137.142 E42.60638
G0 F2700 X141.174 Y137.566
G1 F1125 X157.566 Y121.174 E42.89552
G0 F2700 X157.99 Y121.174
G1 F1125 X141.174 Y137.991 E43.19214
G0 F2700 X141.174 Y138.415
G1 F1125 X158.415 Y121.174 E43.49626
G0 F2700 X158.823 Y121.19
G1 F1125 X141.189 Y138.824 E43.8073
G0 F2700 X141.613 Y138.824
G1 F1125 X158.823 Y121.614 E44.11086
G0 F2700 X158.823 Y122.038
G1 F1125 X142.037 Y138.824 E44.40695
G0 F2700 X142.462 Y138.824
G1 F1125 X158.823 Y122.463 E44.69554
G0 F2700 X158.823 Y122.887
G1 F1125 X142.886 Y138.824 E44.97665
G0 F2700 X143.31 Y138.824
G1 F1125 X158.823 Y123.311 E45.25028
G0 F2700 X158.823 Y123.735
G1 F1125 X143.735 Y138.824 E45.51642
G0 F2700 X144.159 Y138.824
G1 F1125 X158.823 Y124.16 E45.77508
G0 F2700 X158.823 Y124.584
G1 F1125 X144.583 Y138.824 E46.02626
G0 F2700 X145.007 Y138.824
G1 F1125 X158.823 Y125.008 E46.26996
G0 F2700 X158.823 Y125.432
G1 F1125 X145.432 Y138.824 E46.50617
G0 F2700 X145.856 Y138.824
G1 F1125 X158.823 Y125.857 E46.73489
G0 F2700 X158.823 Y126.281
G1 F1125 X146.28 Y138.824 E46.95613
G0 F2700 X146.704 Y138.824
G1 F1125 X158.823 Y126.705 E47.1699
G0 F2700 X158.823 Y127.13
G1 F1125 X147.129 Y138.824 E47.37617
G0 F2700 X147.553 Y138.824
G1 F1125 X158.823 Y127.554 E47.57496
G0 F2700 X158.823 Y127.978
G1 F1125 X147.977 Y138.824 E47.76627
G0 F2700 X148.401 Y138.824
G1 F1125 X158.823 Y128.402 E47.9501
G0 F2700 X158.823 Y128.827
G1 F1125 X148.826 Y138.824 E48.12644
G0 F2700 X149.25 Y138.824
G1 F1125 X158.823 Y129.251 E48.29529
G0 F2700 X158.823 Y129.675
G1 F1125 X149.674 Y138.824 E48.45667
G0 F2700 X150.098 Y138.824
G1 F1125 X158.823 Y130.099 E48.61057
G0 F2700 X158.823 Y130.524
G1 F1125 X150.523 Y138.824 E48.75697
G0 F2700 X150.947 Y138.824
G1 F1125 X158.823 Y130.948 E48.8959
G0 F2700 X158.823 Y131.372
G1 F1125 X151.371 Y138.824 E49.02734
G0 F2700 X151.796 Y138.824
G1 F1125 X158.823 Y131.796 E49.1513
G0 F2700 X158.823 Y132.221
G1 F1125 X152.22 Y138.824 E49.26777
G0 F2700 X152.644 Y138.824
G1 F1125 X158.823 Y132.645 E49.37676
G0 F2700 X158.823 Y133.069
G1 F1125 X153.068 Y138.824 E49.47827
G0 F2700 X153.493 Y138.824
G1 F1125 X158.823 Y133.493 E49.57229
G0 F2700 X158.823 Y133.918
G1 F1125 X153.917 Y138.824 E49.65883
G0 F2700 X154.341 Y138.824
G1 F1125 X158.823 Y134.342 E49.73789
G0 F2700 X158.823 Y134.766
G1 F1125 X154.765 Y138.824 E49.80947
G0 F2700 X155.19 Y138.824
G1 F1125 X158.823 Y135.191 E49.87355
G0 F2700 X158.823 Y135.615
G1 F1125 X155.614 Y138.824 E49.93015
G0 F2700 X156.038 Y138.824
G1 F1125 X158.823 Y136.039 E49.97927
G0 F2700 X158.823 Y136.463
G1 F1125 X156.462 Y138.824 E50.02092
G0 F2700 X156.887 Y138.824
G1 F1125 X158.823 Y136.888 E50.05507
G0 F2700 X158.823 Y137.312
G1 F1125 X157.311 Y138.824 E50.08174
G0 F2700 X157.735 Y138.824
G1 F1125 X158.823 Y137.736 E50.10093
G0 F2700 X158.823 Y138.16
G1 F1125 X158.159 Y138.824 E50.11264
G0 F2700 X158.584 Y138.824
G1 F1125 X158.823 Y138.585 E50.11686
;MESH:NONMESH
G0 F600 X158.823 Y138.585 Z0.4
G0 F2700 X140.75 Y139.25
;TIME_ELAPSED:139.403743
;LAYER:2
M117 Cube: Camada 2/199
;TYPE:WALL-INNER
;MESH:Cube.stl
G1 X140.75 Y120.75 E50.3476
G1 X159.25 Y120.75 E50.57834
G1 X159.25 Y139.25 E50.80908
G1 X140.75 Y139.25 E51.03983
G0 F3600 X140.45 Y139.55
G1 F2700 X140.45 Y120.45 E51.27805
G1 X159.55 Y120.45 E51.51628
G1 X159.55 Y139.55 E51.7545
G1 X140.45 Y139.55 E51.99273
G0 F3600 X140.15 Y139.85
;TYPE:WALL-OUTER
G1 F1350 X140.15 Y120.15 E52.23844
G1 X159.85 Y120.15 E52.48415
G1 X159.85 Y139.85 E52.72986
G1 X140.15 Y139.85 E52.97557
G0 F3600 X140.15 Y139.7
G0 X140.52 Y139.48
G0 X141.04 Y138.96
;TYPE:SKIN
G1 F900 X141.04 Y121.04 E53.19907
G1 X158.96 Y121.04 E53.42258
G1 X158.96 Y138.96 E53.64609
G1 X141.04 Y138.96 E53.8696
G0 F3600 X141.37 Y138.824
G1 F900 X141.173 Y138.628 E53.87306
G0 F3600 X141.173 Y138.204
G1 F900 X141.794 Y138.824 E53.88401
G0 F3600 X142.218 Y138.824
G1 F900 X141.173 Y137.779 E53.90244
G0 F3600 X141.173 Y137.355
G1 F900 X142.643 Y138.824 E53.92836
G0 F3600 X143.067 Y138.824
G1 F900 X141.173 Y136.931 E53.96176
G0 F3600 X141.173 Y136.506
G1 F900 X143.491 Y138.824 E54.00265
G0 F3600 X143.916 Y138.824
G1 F900 X141.173 Y136.082 E54.05102
G0 F3600 X141.173 Y135.658
G1 F900 X144.34 Y138.824 E54.10688
G0 F3600 X144.764 Y138.824
G1 F900 X141.173 Y135.234 E54.17021
G0 F3600 X141.173 Y134.809
G1 F900 X145.188 Y138.824 E54.24103
G0 F3600 X145.613 Y138.824
G1 F900 X141.173 Y134.385 E54.31934
G0 F3600 X141.173 Y133.961
G1 F900 X146.037 Y138.824 E54.40512
G0 F3600 X146.461 Y138.824
G1 F900 X141.173 Y133.537 E54.49839
G0 F3600 X141.173 Y133.112
G1 F900 X146.885 Y138.824 E54.59914
G0 F3600 X147.31 Y138.824
G1 F900 X141.173 Y132.688 E54.70738
G0 F3600 X141.173 Y132.264
G1 F900 X147.734 Y138.824 E54.8231
G0 F3600 X148.158 Y138.824
G1 F900 X141.173 Y131.84 E54.9463
G0 F3600 X141.173 Y131.415
G1 F900 X148.582 Y138.824 E55.07699
G0 F3600 X149.007 Y138.824
G1 F900 X141.173 Y130.991 E55.21516
G0 F3600 X141.173 Y130.567
G1 F900 X149.431 Y138.824 E55.36081
G0 F3600 X149.855 Y138.824
G1 F900 X141.173 Y130.143 E55.51394
G0 F3600 X141.173 Y129.718
G1 F900 X150.279 Y138.824 E55.67456
G0 F3600 X150.704 Y138.824
G1 F900 X141.173 Y129.294 E55.84267
G0 F3600 X141.173 Y128.87
G1 F900 X151.128 Y138.824 E56.01826
G0 F3600 X151.552 Y138.824
G1 F900 X141.173 Y128.445 E56.20133
G0 F3600 X141.173 Y128.021
G1 F900 X151.977 Y138.824 E56.39189
G0 F3600 X152.401 Y138.824
G1 F900 X141.173 Y127.597 E56.58993
G0 F3600 X141.173 Y127.173
G1 F900 X152.825 Y138.824 E56.79545
G0 F3600 X153.249 Y138.824
G1 F900 X141.173 Y126.748 E57.00846
G0 F3600 X141.173 Y126.324
G1 F900 X153.674 Y138.824 E57.22895
G0 F3600 X154.098 Y138.824
G1 F900 X141.173 Y125.9 E57.45693
G0 F3600 X141.173 Y125.476
G1 F900 X154.522 Y138.824 E57.69238
G0 F3600 X154.946 Y138.824
G1 F900 X141.173 Y125.051 E57.93532
G0 F3600 X141.173 Y124.627
G1 F900 X155.371 Y138.824 E58.18575
G0 F3600 X155.795 Y138.824
G1 F900 X141.173 Y124.203 E58.44365
G0 F3600 X141.173 Y123.779
G1 F900 X156.219 Y138.824 E58.70904
G0 F3600 X156.643 Y138.824
G1 F900 X141.173 Y123.354 E58.98191
G0 F3600 X141.173 Y122.93
G1 F900 X157.068 Y138.824 E59.26227
G0 F3600 X157.492 Y138.824
G1 F900 X141.173 Y122.506 E59.55011
G0 F3600 X141.173 Y122.081
